X:228
T:Sturm March Gallop. Le4.228, The
L:1/8
B:L.Leadley MS#4 c1850
Z:vmp.Mike Hicken 2016 www.village-music-project.org.uk
N: The key signatures are difficult to make out but I have used A and D in line with
N: https://www.loc.gov/resource/sm1851.141990.0 although this is in F and Bb.
N: * These are shown as crotchets in the original.
N: ** There is quaver rest here in the original which has been omitted.
N: *** This quaver rest is not in the original,
Q:1/4=120
M:2/4
K:A
!ff! ee/e/ ee/e/|ecAc|e2f2|e4|z2f2|e4|(e2d2)|(c2B2)||ee/e/ ee/e/|ecAc|"*"e z"*"fz
e4|ag/g/ gf/f/|fede|fz ez|c4|ee/e/ ee/e/|ecAc|ez fz|e4|^d2 ag|c'bag|bagf|
e2z2"**"||e2e2|e2e2|=f2 ^de|=f2z2|=f2f2|f2f2|f2 ef|g2 z2|gz gz|gz gz|b2 az/e/|c4|ez^dz|d3G|
Bz Az|E2 (A/c/e/a/)|gz gz|gz gz|b2 a>e|c4|ez ^dz|d3G
Az cz|A2z2||[K:D]dz dz|dz dz|dz dz|dz dz|Dz D>F|Az A"***"z|
Bz cz|d2A2|(dc).B.A|(dc).B.A|A>BA>G|F2E2|Dz D>F|Az Az|
Bz cz|d2A2|(dc).B.A|(dc).B.A|A>BA>G|(F2E2)Az Az|Bz Bz|g>fg>b|
a>f d2|Az Az|(dc)(dc)|fz fz|f4||A>BA>B|Az d>e|dz cz|e4|A>BA>B|
Az e>f|ez dz|f4|A>BA>B|Az f>g|fz ez|b4|b2 a>f|gz fz|f2 ec|d2z2 |]

